Otagle3/Assets/ikonySvG/PrzerzycWPionie.svg

<?xml version="1.0" encoding="UTF-8" standalone="no"?>
<svg
   xmlns:dc="http://purl.org/dc/elements/1.1/"
   xmlns:cc="http://creativecommons.org/ns#"
   xmlns:rdf="http://www.w3.org/1999/02/22-rdf-syntax-ns#"
   xmlns:svg="http://www.w3.org/2000/svg"
   xmlns="http://www.w3.org/2000/svg"
   id="svg47"
   version="1.1"
   viewBox="0 0 52.758294 52.758296"
   height="199.40143"
   width="199.40143">
  <defs
     id="defs42">
    <pattern
       id="EMFhbasepattern"
       patternUnits="userSpaceOnUse"
       width="6"
       height="6"
       x="0"
       y="0" />
    <marker
       style="overflow:visible"
       id="Arrow1Mend-5-0"
       refX="0"
       refY="0"
       orient="auto">
      <path
         transform="matrix(-0.4,0,0,-0.4,-4,0)"
         style="fill:#000000;fill-opacity:1;fill-rule:evenodd;stroke:#000000;stroke-width:1.00000003pt;stroke-opacity:1"
         d="M 0,0 5,-5 -12.5,0 5,5 Z"
         id="path1146-3-3" />
    </marker>
    <marker
       style="overflow:visible"
       id="Arrow1Mend-5-3"
       refX="0"
       refY="0"
       orient="auto">
      <path
         transform="matrix(-0.4,0,0,-0.4,-4,0)"
         style="fill:#000000;fill-opacity:1;fill-rule:evenodd;stroke:#000000;stroke-width:1.00000003pt;stroke-opacity:1"
         d="M 0,0 5,-5 -12.5,0 5,5 Z"
         id="path1146-3-9" />
    </marker>
    <marker
       orient="auto"
       refY="0"
       refX="0"
       id="Arrow1Mend-5-0-4"
       style="overflow:visible">
      <path
         id="path1146-3-3-8"
         d="M 0,0 5,-5 -12.5,0 5,5 Z"
         style="fill:#ffffff;fill-opacity:1;fill-rule:evenodd;stroke:#ffffff;stroke-width:1.00000003pt;stroke-opacity:1"
         transform="matrix(-0.4,0,0,-0.4,-4,0)" />
    </marker>
    <marker
       orient="auto"
       refY="0"
       refX="0"
       id="Arrow1Mend-5-3-8"
       style="overflow:visible">
      <path
         id="path1146-3-9-5"
         d="M 0,0 5,-5 -12.5,0 5,5 Z"
         style="fill:#ffffff;fill-opacity:1;fill-rule:evenodd;stroke:#ffffff;stroke-width:1.00000003pt;stroke-opacity:1"
         transform="matrix(-0.4,0,0,-0.4,-4,0)" />
    </marker>
    <marker
       style="overflow:visible"
       id="Arrow1Mend"
       refX="0"
       refY="0"
       orient="auto">
      <path
         transform="matrix(-0.4,0,0,-0.4,-4,0)"
         style="fill:#000000;fill-opacity:1;fill-rule:evenodd;stroke:#000000;stroke-width:1.00000003pt;stroke-opacity:1"
         d="M 0,0 5,-5 -12.5,0 5,5 Z"
         id="path1146" />
    </marker>
    <marker
       orient="auto"
       refY="0"
       refX="0"
       id="Arrow1Mend-5"
       style="overflow:visible">
      <path
         id="path1146-3"
         d="M 0,0 5,-5 -12.5,0 5,5 Z"
         style="fill:#ffffff;fill-opacity:1;fill-rule:evenodd;stroke:#ffffff;stroke-width:1.00000003pt;stroke-opacity:1"
         transform="matrix(-0.4,0,0,-0.4,-4,0)" />
    </marker>
    <marker
       style="overflow:visible"
       id="Arrow1Mstart"
       refX="0"
       refY="0"
       orient="auto">
      <path
         transform="matrix(0.4,0,0,0.4,4,0)"
         style="fill:#000000;fill-opacity:1;fill-rule:evenodd;stroke:#000000;stroke-width:1.00000003pt;stroke-opacity:1"
         d="M 0,0 5,-5 -12.5,0 5,5 Z"
         id="path1143" />
    </marker>
    <marker
       orient="auto"
       refY="0"
       refX="0"
       id="Arrow1Mstart-1"
       style="overflow:visible">
      <path
         id="path1143-7"
         d="M 0,0 5,-5 -12.5,0 5,5 Z"
         style="fill:#ffffff;fill-opacity:1;fill-rule:evenodd;stroke:#ffffff;stroke-width:1.00000003pt;stroke-opacity:1"
         transform="matrix(0.4,0,0,0.4,4,0)" />
    </marker>
    <marker
       style="overflow:visible"
       id="Arrow1Lend"
       refX="0"
       refY="0"
       orient="auto">
      <path
         transform="matrix(-0.8,0,0,-0.8,-10,0)"
         style="fill:#000000;fill-opacity:1;fill-rule:evenodd;stroke:#000000;stroke-width:1.00000003pt;stroke-opacity:1"
         d="M 0,0 5,-5 -12.5,0 5,5 Z"
         id="path1140" />
    </marker>
    <marker
       style="overflow:visible"
       id="Arrow1Lstart"
       refX="0"
       refY="0"
       orient="auto">
      <path
         transform="matrix(0.8,0,0,0.8,10,0)"
         style="fill:#000000;fill-opacity:1;fill-rule:evenodd;stroke:#000000;stroke-width:1.00000003pt;stroke-opacity:1"
         d="M 0,0 5,-5 -12.5,0 5,5 Z"
         id="path1137" />
    </marker>
    <marker
       orient="auto"
       refY="0"
       refX="0"
       id="Arrow1Lend-5"
       style="overflow:visible">
      <path
         id="path1140-4"
         d="M 0,0 5,-5 -12.5,0 5,5 Z"
         style="fill:#ffffff;fill-opacity:1;fill-rule:evenodd;stroke:#ffffff;stroke-width:1.00000003pt;stroke-opacity:1"
         transform="matrix(-0.8,0,0,-0.8,-10,0)" />
    </marker>
    <marker
       orient="auto"
       refY="0"
       refX="0"
       id="Arrow1Lstart-93"
       style="overflow:visible">
      <path
         id="path1137-7"
         d="M 0,0 5,-5 -12.5,0 5,5 Z"
         style="fill:#ffffff;fill-opacity:1;fill-rule:evenodd;stroke:#ffffff;stroke-width:1.00000003pt;stroke-opacity:1"
         transform="matrix(0.8,0,0,0.8,10,0)" />
    </marker>
  </defs>
  <metadata
     id="metadata45">
    <rdf:RDF>
      <cc:Work
         rdf:about="">
        <dc:format>image/svg+xml</dc:format>
        <dc:type
           rdf:resource="http://purl.org/dc/dcmitype/StillImage" />
        <dc:title></dc:title>
      </cc:Work>
    </rdf:RDF>
  </metadata>
  <g
     id="g8556"
     transform="translate(49.836509,-375.23204)">
    <g
       id="g5305">
      <text
         id="text898-7-3-6-8-3-3-0-66-7-8-8-0-8-3-4-2-6-22-3-3-4-7-0-2-6-2"
         y="425.61624"
         x="-23.21401"
         style="font-size:6.3499999px;line-height:0.94999999;font-family:voestalpine;-inkscape-font-specification:voestalpine;text-align:center;letter-spacing:0px;word-spacing:0px;text-anchor:middle;fill:#ffffff;fill-opacity:1;stroke-width:0.26458299"
         xml:space="preserve"><tspan
           style="font-size:6.3499999px;text-align:center;text-anchor:middle;fill:#ffffff;fill-opacity:1;stroke-width:0.26458299"
           y="425.61624"
           x="-23.21401"
           id="tspan3280-8-2-3-8">Pokaż nagłówek</tspan></text>
      <g
         style="fill:#ffffff;fill-opacity:1;stroke:#ffffff;stroke-opacity:1"
         id="g3425-7-6"
         transform="matrix(0.43424404,0,0,-0.43424404,-44.517248,415.49935)">
        <rect
           id="rect3393-7-1"
           height="2"
           width="13.89"
           y="68.667"
           x="17.409"
           style="fill:#ffffff;fill-opacity:1;stroke:#ffffff;stroke-opacity:1" />
        <path
           id="path3395-1-7"
           d="M 85.235,77.833 H 14.106 c -2.998,0 -5.436,-2.438 -5.436,-5.436 V 23.27 c 0,-2.998 2.438,-5.436 5.436,-5.436 h 71.129 c 2.998,0 5.436,2.438 5.436,5.436 v 49.128 c -0.001,2.998 -2.438,5.435 -5.436,5.435 z m -71.129,-58 c -1.895,0 -3.436,1.541 -3.436,3.437 v 49.128 c 0,1.895 1.541,3.436 3.436,3.436 h 71.129 c 1.895,0 3.436,-1.541 3.436,-3.436 V 23.27 c 0,-1.896 -1.541,-3.437 -3.436,-3.437 z"
           style="fill:#ffffff;fill-opacity:1;stroke:#ffffff;stroke-opacity:1" />
        <rect
           id="rect3397-6-6"
           height="2"
           width="13.89"
           y="68.667"
           x="42.648998"
           style="fill:#ffffff;fill-opacity:1;stroke:#ffffff;stroke-opacity:1" />
        <rect
           id="rect3399-8-5"
           height="2"
           width="13.89"
           y="68.667"
           x="67.704002"
           style="fill:#ffffff;fill-opacity:1;stroke:#ffffff;stroke-opacity:1" />
        <rect
           id="rect3401-4-7"
           height="2"
           width="13.89"
           y="62.667"
           x="17.500999"
           style="fill:#ffffff;fill-opacity:1;stroke:#ffffff;stroke-opacity:1" />
        <rect
           id="rect3403-9-4"
           height="2"
           width="13.89"
           y="62.667"
           x="42.742001"
           style="fill:#ffffff;fill-opacity:1;stroke:#ffffff;stroke-opacity:1" />
        <rect
           id="rect3405-2-5"
           height="2"
           width="13.89"
           y="62.667"
           x="67.795998"
           style="fill:#ffffff;fill-opacity:1;stroke:#ffffff;stroke-opacity:1" />
        <rect
           id="rect3407-0-9"
           height="2"
           width="64.139"
           y="56.667"
           x="17.500999"
           style="fill:#ffffff;fill-opacity:1;stroke:#ffffff;stroke-opacity:1" />
      </g>
      <g
         id="g2469"
         transform="translate(-841.71968,462.25821)">
        <rect
           style="fill:#b9d4ff;fill-opacity:1;stroke:#000000;stroke-width:0.28429499;stroke-linecap:round;stroke-miterlimit:4;stroke-dasharray:none;stroke-opacity:1;paint-order:fill markers stroke"
           id="rect833-2-8-6-2-6-4-8-1-7-4"
           width="52.632374"
           height="52.63237"
           x="792.06311"
           y="-86.664398" />
        <text
           xml:space="preserve"
           style="font-size:6.3499999px;line-height:1.04999995;font-family:voestalpine;-inkscape-font-specification:voestalpine;text-align:end;letter-spacing:0px;word-spacing:0px;text-anchor:end;stroke-width:0.26458299"
           x="818.24902"
           y="-43.216072"
           id="text837-2-5-3-5-4-2-1-6-9-68"><tspan
             id="tspan3375-9"
             x="818.24902"
             y="-43.216072"
             style="font-size:6.3499999px;text-align:center;text-anchor:middle;stroke-width:0.26458299">Przerzuć</tspan><tspan
             x="818.24902"
             y="-36.548573"
             style="font-size:6.3499999px;text-align:center;text-anchor:middle;stroke-width:0.26458299"
             id="tspan3469">w pionie</tspan></text>
        <g
           style="fill:#000000"
           id="g3489"
           transform="matrix(1.2525379,0,0,1.2525379,801.80926,-84.322862)">
          <path
             style="color:#000000;font-style:normal;font-variant:normal;font-weight:normal;font-stretch:normal;font-size:medium;line-height:normal;font-family:sans-serif;font-variant-ligatures:normal;font-variant-position:normal;font-variant-caps:normal;font-variant-numeric:normal;font-variant-alternates:normal;font-feature-settings:normal;text-indent:0;text-align:start;text-decoration:none;text-decoration-line:none;text-decoration-style:solid;text-decoration-color:#000000;letter-spacing:normal;word-spacing:normal;text-transform:none;writing-mode:lr-tb;direction:ltr;text-orientation:mixed;dominant-baseline:auto;baseline-shift:baseline;text-anchor:start;white-space:normal;shape-padding:0;clip-rule:nonzero;display:inline;overflow:visible;visibility:visible;isolation:auto;mix-blend-mode:normal;color-interpolation:sRGB;color-interpolation-filters:linearRGB;solid-color:#000000;solid-opacity:1;vector-effect:none;fill:#000000;fill-opacity:1;fill-rule:evenodd;stroke:none;stroke-width:1.05833006;stroke-linecap:round;stroke-linejoin:round;stroke-miterlimit:4;stroke-dasharray:none;stroke-dashoffset:0;stroke-opacity:1;paint-order:normal;color-rendering:auto;image-rendering:auto;shape-rendering:auto;text-rendering:auto;enable-background:accumulate"
             d="m 1.5877419,15.89087 c 0.00635,0.21365 0.1408112,0.40241 0.3405451,0.4785 l 22.224762,8.46625 c 0.346445,0.1321 0.717814,-0.12375 0.717788,-0.49451 V 15.87487 C 24.87081,15.58266 24.633903,15.34575 24.34167,15.34573 H 2.1163793 c -0.2983971,1.8e-4 -0.5376333,0.2469 -0.5286374,0.54514 z m 0,-2.65395 c 0.00423,0.29204 0.2443426,0.52538 0.5363897,0.52139 h 1.6153871 c 0.7151422,0.01 0.7151422,-1.06794 0,-1.05829 H 2.1241316 c -0.298106,-0.004 -0.5407554,0.23882 -0.5363897,0.5369 z m 0,-2.65708 c -0.00265,0.29345 0.2351881,0.53247 0.5286374,0.53279 H 24.34167 c 0.292233,-3e-5 0.52914,-0.23693 0.529167,-0.52917 V 2.11725 C 24.870863,1.74646 24.499494,1.49063 24.153049,1.62271 L 1.928287,10.08896 c -0.2038614,0.0778 -0.3390899,0.2727 -0.3405451,0.49088 z M 4.992162,10.05432 23.812504,2.88509 v 7.16923 z m 0.9218612,3.1826 c 0.00423,0.29226 0.2446602,0.52567 0.536919,0.52139 H 9.161863 c 0.7151423,0.01 0.7151423,-1.06794 0,-1.05829 H 6.4509422 c -0.2983177,-0.004 -0.5412846,0.23861 -0.536919,0.5369 z m 5.4228738,0 c 0.0042,0.29204 0.244369,0.52538 0.536416,0.52139 h 2.711423 c 0.715143,0.01 0.715143,-1.06794 0,-1.05829 h -2.711423 c -0.298133,-0.004 -0.540782,0.23879 -0.536416,0.5369 z m 5.42237,0 c 0.0042,0.29204 0.244343,0.52538 0.53639,0.52139 h 2.71145 c 0.715143,0.01 0.715143,-1.06794 0,-1.05829 h -2.71145 c -0.298106,-0.004 -0.540755,0.23882 -0.53639,0.5369 z m 5.422345,0 c 0.0042,0.29226 0.24466,0.52567 0.536919,0.52139 h 1.615387 c 0.715142,0.01 0.715142,-1.06794 0,-1.05829 h -1.615387 c -0.298318,-0.004 -0.541285,0.23861 -0.536919,0.5369 z"
             id="path3475" />
        </g>
      </g>
    </g>
  </g>
</svg>

<svg id="SVGRoot" width="206px" height="206px" version="1.1" viewBox="0 0 206 206" xmlns="http://www.w3.org/2000/svg">
 <g transform="matrix(3.7795 0 0 3.7795 -1795.2 2502.6)">
  <flowRoot fill="black" font-family="sans-serif" font-size="40px" letter-spacing="0px" word-spacing="0px" style="line-height:1.25" xml:space="preserve"><flowRegion><rect x="-392.69" y="-63.57" width="758.02" height="397.52"/></flowRegion><flowPara/></flowRoot>
  <flowRoot fill="black" font-family="sans-serif" font-size="40px" letter-spacing="0px" word-spacing="0px" style="line-height:1.25" xml:space="preserve"><flowRegion><rect x="-251.87" y="-84.492" width="624.44" height="455.45"/></flowRegion><flowPara/></flowRoot>
  <flowRoot fill="black" font-family="sans-serif" font-size="40px" letter-spacing="0px" word-spacing="0px" style="line-height:1.25" xml:space="preserve"><flowRegion><rect x="-202.78" y="-50.695" width="473.96" height="281.64"/></flowRegion><flowPara/></flowRoot>
  <flowRoot fill="black" font-family="sans-serif" font-size="40px" letter-spacing="0px" word-spacing="0px" style="line-height:1.25" xml:space="preserve"><flowRegion><rect x="-86.906" y="-78.859" width="516.61" height="410.39"/></flowRegion><flowPara/></flowRoot>
  <flowRoot fill="black" font-family="sans-serif" font-size="40px" letter-spacing="0px" word-spacing="0px" style="line-height:1.25" xml:space="preserve"><flowRegion><rect x="-81.273" y="-32.188" width="309" height="322.68"/></flowRegion><flowPara/></flowRoot>
  <flowRoot fill="black" font-family="sans-serif" font-size="40px" letter-spacing="0px" word-spacing="0px" style="line-height:1.25" xml:space="preserve"><flowRegion><rect x="-90.93" y="-68.398" width="392.69" height="252.67"/></flowRegion><flowPara/></flowRoot>
  <g transform="translate(675.17 -.21291)">
   <flowRoot fill="black" font-family="sans-serif" font-size="40px" letter-spacing="0px" word-spacing="0px" style="line-height:1.25" xml:space="preserve"><flowRegion><rect x="-100.59" y="-53.109" width="462.7" height="369.35"/></flowRegion><flowPara/></flowRoot>
   <g transform="translate(57.194 .21291)">
    <flowRoot fill="black" font-family="sans-serif" font-size="40px" letter-spacing="0px" word-spacing="0px" style="line-height:1.25" xml:space="preserve"><flowRegion><rect x="-329.12" y="-12.07" width="696.05" height="259.91"/></flowRegion><flowPara/></flowRoot>
    <g transform="translate(-1495.1 -629.38)">
     <flowRoot fill="black" font-family="sans-serif" font-size="40px" letter-spacing="0px" word-spacing="0px" style="line-height:1.25" xml:space="preserve"><flowRegion><rect x="-306.59" y="-111.05" width="206" height="51.5"/></flowRegion><flowPara/></flowRoot>
     <flowRoot fill="black" font-family="sans-serif" font-size="40px" letter-spacing="0px" word-spacing="0px" style="line-height:1.25" xml:space="preserve"><flowRegion><rect x="-70.812" y="-36.211" width="362.91" height="283.25"/></flowRegion><flowPara/></flowRoot>
     <g transform="translate(538.4 -400.97)">
      <flowRoot fill="black" font-family="sans-serif" font-size="40px" letter-spacing="0px" word-spacing="0px" style="line-height:1.25" xml:space="preserve"><flowRegion><rect x="-138.41" y="-65.18" width="448.21" height="363.72"/></flowRegion><flowPara/></flowRoot>
      <flowRoot fill="black" font-family="sans-serif" font-size="40px" letter-spacing="0px" word-spacing="0px" style="line-height:1.25" xml:space="preserve"><flowRegion><rect x="-67.578" y="-8.4531" width="327.73" height="260.94"/></flowRegion><flowPara/></flowRoot>
      <g transform="translate(-380.28 455.78)">
       <flowRoot fill="black" font-family="sans-serif" font-size="40px" letter-spacing="0px" word-spacing="0px" style="line-height:1.25" xml:space="preserve"><flowRegion><rect x="-5.8594" y="-7.2813" width="339.45" height="326.95"/></flowRegion><flowPara/></flowRoot>
       <g transform="translate(288.56 .41342)">
        <rect x="792.06" y="-86.664" width="52.632" height="52.632" fill="#b9d4ff" stroke="#000" stroke-linecap="round" stroke-width=".28429" style="paint-order:fill markers stroke"/>
        <text x="818.24902" y="-45.370869" font-family="sans-serif" font-size="4.9389px" letter-spacing="0px" stroke-width=".26458" text-align="end" text-anchor="middle" word-spacing="0px" style="line-height:1.04999995" xml:space="preserve"><tspan x="818.24902" y="-45.370869" text-align="center">Przerzuć</tspan><tspan x="818.24902" y="-38.703369" text-align="center">w pionie</tspan></text>
        <g transform="matrix(1.2525 0 0 1.2525 801.81 -84.323)">
         <path d="m1.5877 15.891c.00635.21365.14081.40241.34055.4785l22.225 8.4662c.34644.1321.71781-.12375.71779-.49451v-8.4662c-2.7e-5-.29221-.23693-.52912-.52917-.52914h-22.225c-.2984.00018-.53763.2469-.52864.54514zm0-2.654c.00423.29204.24434.52538.53639.52139h1.6154c.71514.01.71514-1.0679 0-1.0583h-1.6154c-.29811-.004-.54076.23882-.53639.5369zm0-2.6571c-.00265.29345.23519.53247.52864.53279h22.225c.29223-3e-5.52914-.23693.52917-.52917v-8.4662c2.6e-5-.37079-.37134-.62662-.71779-.49454l-22.225 8.4662c-.20386.0778-.33909.2727-.34055.49088zm3.4044-.52552 18.82-7.1692v7.1692zm.92186 3.1826c.00423.29226.24466.52567.53692.52139h2.7109c.71514.01.71514-1.0679 0-1.0583h-2.7109c-.29832-.004-.54128.23861-.53692.5369zm5.4229 0c.0042.29204.24437.52538.53642.52139h2.7114c.71514.01.71514-1.0679 0-1.0583h-2.7114c-.29813-.004-.54078.23879-.53642.5369zm5.4224 0c.0042.29204.24434.52538.53639.52139h2.7114c.71514.01.71514-1.0679 0-1.0583h-2.7114c-.29811-.004-.54076.23882-.53639.5369zm5.4223 0c.0042.29226.24466.52567.53692.52139h1.6154c.71514.01.71514-1.0679 0-1.0583h-1.6154c-.29832-.004-.54128.23861-.53692.5369z" color="#000000" color-rendering="auto" dominant-baseline="auto" fill-rule="evenodd" image-rendering="auto" shape-rendering="auto" solid-color="#000000" style="font-feature-settings:normal;font-variant-alternates:normal;font-variant-caps:normal;font-variant-ligatures:normal;font-variant-numeric:normal;font-variant-position:normal;isolation:auto;mix-blend-mode:normal;paint-order:normal;shape-padding:0;text-decoration-color:#000000;text-decoration-line:none;text-decoration-style:solid;text-indent:0;text-orientation:mixed;text-transform:none;white-space:normal"/>
        </g>
       </g>
      </g>
     </g>
    </g>
   </g>
  </g>
 </g>
</svg>
